src/pos-icons/key-remove.svg

<svg height="24" viewBox="0 0 24 24" width="24" xmlns="http://www.w3.org/2000/svg"><path d="m6.5 3c1.96 0 3.63 1.25 4.24 3h11.26v3h-4v3h-3v-3h-4.26c-.61 1.75-2.28 3-4.24 3-2.5 0-4.5-2-4.5-4.5s2-4.5 4.5-4.5m0 3a1.5 1.5 0 0 0 -1.5 1.5 1.5 1.5 0 0 0 1.5 1.5 1.5 1.5 0 0 0 1.5-1.5 1.5 1.5 0 0 0 -1.5-1.5m8.09 8 1.41 1.41-2.59 2.59 2.59 2.59-1.41 1.41-2.59-2.59-2.59 2.59-1.41-1.41 2.59-2.59-2.59-2.59 1.41-1.41 2.59 2.59z"/></svg>

<?xml version="1.0" encoding="UTF-8"?><!DOCTYPE svg PUBLIC "-//W3C//DTD SVG 1.1//EN" "http://www.w3.org/Graphics/SVG/1.1/DTD/svg11.dtd"><svg xmlns="http://www.w3.org/2000/svg" xmlns:xlink="http://www.w3.org/1999/xlink" version="1.1" id="mdi-key-remove" width="24" height="24" viewBox="0 0 24 24"><path d="M6.5,3C8.46,3 10.13,4.25 10.74,6H22V9H18V12H15V9H10.74C10.13,10.75 8.46,12 6.5,12C4,12 2,10 2,7.5C2,5 4,3 6.5,3M6.5,6A1.5,1.5 0 0,0 5,7.5A1.5,1.5 0 0,0 6.5,9A1.5,1.5 0 0,0 8,7.5A1.5,1.5 0 0,0 6.5,6M14.59,14L16,15.41L13.41,18L16,20.59L14.59,22L12,19.41L9.41,22L8,20.59L10.59,18L8,15.41L9.41,14L12,16.59L14.59,14Z" /></svg>
